austria/municipalities/70705.svg

<?xml version="1.0" encoding="UTF-8"?>
<!DOCTYPE svg PUBLIC "-//W3C//DTD SVG 1.1//EN" "http://www.w3.org/Graphics/SVG/1.1/DTD/svg11.dtd">
<svg xmlns="http://www.w3.org/2000/svg" version="1.1" width="166px" height="192px" style="shape-rendering:geometricPrecision; text-rendering:geometricPrecision; image-rendering:optimizeQuality; fill-rule:evenodd; clip-rule:evenodd" xmlns:xlink="http://www.w3.org/1999/xlink">
<g><path style="opacity:1" fill="#140d0b" d="M -0.5,-0.5 C 54.8333,-0.5 110.167,-0.5 165.5,-0.5C 165.5,39.1667 165.5,78.8333 165.5,118.5C 157.363,159.637 132.697,183.97 91.5,191.5C 84.8333,191.5 78.1667,191.5 71.5,191.5C 30.4766,182.81 6.47657,157.81 -0.5,116.5C -0.5,77.5 -0.5,38.5 -0.5,-0.5 Z"/></g>
<g><path style="opacity:1" fill="#fcfcfc" d="M 3.5,3.5 C 29.8333,3.5 56.1667,3.5 82.5,3.5C 82.5,64.8333 82.5,126.167 82.5,187.5C 49.009,186.169 24.8423,170.502 10,140.5C 6.89814,132.426 4.89814,124.093 4,115.5C 3.50001,78.1682 3.33335,40.8348 3.5,3.5 Z"/></g>
<g><path style="opacity:1" fill="#d73023" d="M 83.5,3.5 C 109.5,3.5 135.5,3.5 161.5,3.5C 161.667,41.8348 161.5,80.1681 161,118.5C 154.288,156.878 131.788,179.712 93.5,187C 90.1832,187.498 86.8499,187.665 83.5,187.5C 83.5,126.167 83.5,64.8333 83.5,3.5 Z"/></g>
<g><path style="opacity:1" fill="#1b1412" d="M 119.5,32.5 C 130.338,32.1646 139.505,35.8313 147,43.5C 148.993,45.8175 150.159,48.4842 150.5,51.5C 148.076,51.8076 145.743,51.4742 143.5,50.5C 139.55,45.6105 134.383,43.2772 128,43.5C 114.75,45.2787 107.917,52.9453 107.5,66.5C 108.927,79.9269 116.261,87.9269 129.5,90.5C 129.5,93.5 129.5,96.5 129.5,99.5C 130.5,99.5 131.5,99.5 132.5,99.5C 131.808,110.824 133.308,121.824 137,132.5C 137.977,137.734 137.31,142.734 135,147.5C 128.65,153.43 123.65,152.43 120,144.5C 119.833,141.667 119.667,138.833 119.5,136C 121.126,123.365 122.459,110.698 123.5,98C 116.386,95.283 109.719,91.6163 103.5,87C 92.8956,74.0525 91.7289,60.2191 100,45.5C 104.799,38.5237 111.299,34.1904 119.5,32.5 Z"/></g>
<g><path style="opacity:1" fill="#f8f7f7" d="M 127.5,91.5 C 127.808,93.924 127.474,96.2573 126.5,98.5C 125.828,97.0508 125.161,95.7175 124.5,94.5C 101.196,89.5484 92.3625,75.5484 98,52.5C 106.016,36.6033 118.516,31.4366 135.5,37C 141.635,39.3021 145.969,43.4688 148.5,49.5C 148.167,49.8333 147.833,50.1667 147.5,50.5C 131.104,36.568 117.604,38.9013 107,57.5C 103.971,70.0841 107.471,80.2508 117.5,88C 120.561,90.0347 123.895,91.2014 127.5,91.5 Z"/></g>
<g><path style="opacity:1" fill="#211917" d="M 37.5,32.5 C 58.6241,33.2894 69.9574,44.2894 71.5,65.5C 69.0528,82.7822 59.2195,93.1155 42,96.5C 42.9873,109.944 44.4873,123.444 46.5,137C 46.7928,142.126 45.1262,146.46 41.5,150C 35.4056,152.705 31.239,150.872 29,144.5C 27.8389,135.581 28.8389,126.914 32,118.5C 32.4995,112.175 32.6662,105.842 32.5,99.5C 33.5,99.5 34.5,99.5 35.5,99.5C 35.1826,96.4281 35.5159,93.4281 36.5,90.5C 54.0711,85.7058 60.5711,74.3725 56,56.5C 49.2942,44.2645 39.4609,40.7645 26.5,46C 24.0232,50.3291 20.3566,52.1624 15.5,51.5C 15.8671,46.2687 18.2004,42.1021 22.5,39C 27.142,35.7399 32.142,33.5732 37.5,32.5 Z"/></g>
<g><path style="opacity:1" fill="#d23023" d="M 36.5,34.5 C 57.4517,34.1158 68.4517,44.4491 69.5,65.5C 67.5379,82.7955 57.8712,92.4621 40.5,94.5C 40.5,96.1667 40.5,97.8333 40.5,99.5C 39.5,99.5 38.5,99.5 37.5,99.5C 37.5,96.8333 37.5,94.1667 37.5,91.5C 51.8926,88.6018 59.2259,79.7684 59.5,65C 57.6539,49.4813 48.9872,41.8147 33.5,42C 28.4436,43.0276 24.1102,45.361 20.5,49C 19.365,49.7494 18.365,49.5827 17.5,48.5C 21.6409,40.6713 27.9742,36.0046 36.5,34.5 Z"/></g>
<g><path style="opacity:1" fill="#85817e" d="M 127.5,91.5 C 128.473,93.9479 128.806,96.6146 128.5,99.5C 127.167,99.5 125.833,99.5 124.5,99.5C 124.5,97.8333 124.5,96.1667 124.5,94.5C 125.161,95.7175 125.828,97.0508 126.5,98.5C 127.474,96.2573 127.808,93.924 127.5,91.5 Z"/></g>
<g><path style="opacity:1" fill="#d73123" d="M 34.5,100.5 C 36.8333,100.5 39.1667,100.5 41.5,100.5C 41.5,102.833 41.5,105.167 41.5,107.5C 39.1667,107.5 36.8333,107.5 34.5,107.5C 34.5,105.167 34.5,102.833 34.5,100.5 Z"/></g>
<g><path style="opacity:1" fill="#fefffe" d="M 123.5,100.5 C 125.833,100.5 128.167,100.5 130.5,100.5C 130.5,102.833 130.5,105.167 130.5,107.5C 128.167,107.5 125.833,107.5 123.5,107.5C 123.5,105.167 123.5,102.833 123.5,100.5 Z"/></g>
<g><path style="opacity:1" fill="#d43023" d="M 34.5,109.5 C 36.8333,109.5 39.1667,109.5 41.5,109.5C 42.9292,120.804 43.7625,132.137 44,143.5C 42.5504,148.308 39.3838,150.141 34.5,149C 32.9512,147.786 31.7845,146.286 31,144.5C 30.3333,139.167 30.3333,133.833 31,128.5C 33.2853,122.362 34.452,116.028 34.5,109.5 Z"/></g>
<g><path style="opacity:1" fill="#fafaf9" d="M 123.5,109.5 C 125.833,109.5 128.167,109.5 130.5,109.5C 131.739,118.891 133.405,128.224 135.5,137.5C 135.292,140.998 134.459,144.331 133,147.5C 129.304,150.425 125.971,150.092 123,146.5C 121.455,143.698 120.622,140.698 120.5,137.5C 122.375,128.253 123.375,118.92 123.5,109.5 Z"/></g>
<g><path style="opacity:1" fill="#fdfdfd" d="M -0.5,116.5 C 6.47657,157.81 30.4766,182.81 71.5,191.5C 47.5,191.5 23.5,191.5 -0.5,191.5C -0.5,166.5 -0.5,141.5 -0.5,116.5 Z"/></g>
<g><path style="opacity:1" fill="#fcfcfc" d="M 165.5,118.5 C 165.5,142.833 165.5,167.167 165.5,191.5C 140.833,191.5 116.167,191.5 91.5,191.5C 132.697,183.97 157.363,159.637 165.5,118.5 Z"/></g>
</svg>

<svg xmlns="http://www.w3.org/2000/svg" width="166" height="192" style="shape-rendering:geometricPrecision;text-rendering:geometricPrecision;image-rendering:optimizeQuality;fill-rule:evenodd;clip-rule:evenodd"><path style="opacity:1" fill="#140d0b" d="M-.5-.5h166v119c-8.137 41.137-32.803 65.47-74 73h-20c-41.023-8.69-65.023-33.69-72-75V-.5z"/><path style="opacity:1" fill="#fcfcfc" d="M3.5 3.5h79v184c-33.491-1.331-57.658-16.998-72.5-47a97.745 97.745 0 0 1-6-25c-.5-37.332-.667-74.665-.5-112z"/><path style="opacity:1" fill="#d73023" d="M83.5 3.5h78c.167 38.335 0 76.668-.5 115-6.712 38.378-29.212 61.212-67.5 68.5-3.317.498-6.65.665-10 .5V3.5z"/><path style="opacity:1" fill="#1b1412" d="M119.5 32.5c10.838-.335 20.005 3.331 27.5 11 1.993 2.318 3.159 4.984 3.5 8a13.118 13.118 0 0 1-7-1c-3.95-4.89-9.117-7.223-15.5-7-13.25 1.779-20.083 9.445-20.5 23 1.427 13.427 8.761 21.427 22 24v9h3c-.692 11.324.808 22.324 4.5 33 .977 5.234.31 10.234-2 15-6.35 5.93-11.35 4.93-15-3l-.5-8.5a827.239 827.239 0 0 0 4-38c-7.114-2.717-13.781-6.384-20-11-10.604-12.948-11.771-26.78-3.5-41.5 4.799-6.976 11.299-11.31 19.5-13z"/><path style="opacity:1" fill="#f8f7f7" d="M127.5 91.5a13.115 13.115 0 0 1-1 7 71.015 71.015 0 0 0-2-4c-23.304-4.952-32.138-18.952-26.5-42 8.016-15.897 20.516-21.063 37.5-15.5 6.135 2.302 10.469 6.469 13 12.5l-1 1c-16.396-13.932-29.896-11.599-40.5 7-3.029 12.584.471 22.75 10.5 30.5 3.061 2.035 6.395 3.201 10 3.5z"/><path style="opacity:1" fill="#211917" d="M37.5 32.5c21.124.79 32.457 11.79 34 33-2.447 17.282-12.28 27.615-29.5 31a549.963 549.963 0 0 0 4.5 40.5c.293 5.126-1.374 9.46-5 13-6.094 2.705-10.261.872-12.5-5.5-1.161-8.919-.161-17.586 3-26 .5-6.325.666-12.658.5-19h3a21.12 21.12 0 0 1 1-9c17.571-4.794 24.071-16.127 19.5-34C49.294 44.264 39.46 40.764 26.5 46c-2.477 4.33-6.143 6.162-11 5.5.367-5.231 2.7-9.398 7-12.5 4.642-3.26 9.642-5.427 15-6.5z"/><path style="opacity:1" fill="#d23023" d="M36.5 34.5c20.952-.384 31.952 9.95 33 31-1.962 17.296-11.629 26.962-29 29v5h-3v-8c14.393-2.898 21.726-11.732 22-26.5-1.846-15.519-10.513-23.185-26-23-5.056 1.028-9.39 3.361-13 7-1.135.75-2.135.583-3-.5 4.14-7.829 10.474-12.495 19-14z"/><path style="opacity:1" fill="#85817e" d="M127.5 91.5c.973 2.448 1.306 5.115 1 8h-4v-5a71.015 71.015 0 0 1 2 4 13.115 13.115 0 0 0 1-7z"/><path style="opacity:1" fill="#d73123" d="M34.5 100.5h7v7h-7v-7z"/><path style="opacity:1" fill="#fefffe" d="M123.5 100.5h7v7h-7v-7z"/><path style="opacity:1" fill="#d43023" d="M34.5 109.5h7a325.015 325.015 0 0 1 2.5 34c-1.45 4.808-4.616 6.641-9.5 5.5a11.529 11.529 0 0 1-3.5-4.5 64.247 64.247 0 0 1 0-16 55.212 55.212 0 0 0 3.5-19z"/><path style="opacity:1" fill="#fafaf9" d="M123.5 109.5h7a312.679 312.679 0 0 0 5 28 27.624 27.624 0 0 1-2.5 10c-3.696 2.925-7.029 2.592-10-1a19.967 19.967 0 0 1-2.5-9 150.65 150.65 0 0 0 3-28z"/><path style="opacity:1" fill="#fdfdfd" d="M-.5 116.5c6.977 41.31 30.977 66.31 72 75h-72v-75z"/><path style="opacity:1" fill="#fcfcfc" d="M165.5 118.5v73h-74c41.197-7.53 65.863-31.863 74-73z"/></svg>
